X: 100020
M: 6/8
L: 1/8
K: D
uA |\
def fga | (a2g) (.e2.e) | afd afd | (e/f/e/d/c/B/) A2A |\
def fga | a3 z(uge) | {g}f2(d e)dc | (.d2.f) d2 ||
uf |\
efe (e2a) | ^g2(b a)ga | (b2^g) efd | c2(d e)cd |\
(e2a) (^g2b) | ac'b a^gf | {g}fec edB | A3 "^D.C."z2 ||
uF |\


